/* XPM */
static const char * app_icon_xpm[] = {
"32 32 11 1",
"  c None",
"R c #FF0000",
"B c #0000FF",
"G c #00FF00",
"L c #00CED1",
"D c #006400",
"Y c #FFFF00",
"W c #FFFFFF",
"M c #FF00FF",
"K c #000000",
"O c #FF8C00",
"                                ",
"                                ",
"                                ",
"                                ",
"                                ",
"                                ",
"                                ",
"                                ",
"        B    RRRRRR    B        ",
"         B RRR    RRR B         ",
"          BR        RB          ",
"         RRB        BRR         ",
"         R  B      B  R         ",
"        RR   B RR B   RR        ",
"        R     R  R     R        ",
"        R    R    R    R        ",
"        R    R    R    R        ",
"        R     R  R     R        ",
"        RR   B RR B   RR        ",
"         R  B      B  R         ",
"         RRB        BRR         ",
"          BR        RB          ",
"         B RRR    RRR B         ",
"        B    RRRRRR    B        ",
"                                ",
"                                ",
"                                ",
"                                ",
"                                ",
"                                ",
"                                ",
"                                ",
};